X: 11
T: Miller Boy
B: canberra pickers and fiddlers
B: tunes
M:4/4
L:1/8
Q: 1/4=100
K:D
V:1 
[D,4D4][D,4D4]||+slide+FE D2 +slide+FE D2|+slide+F2A2F4|{G}A2A2 FE DF|[E2A2][E2A2]- [F4A4]|
+slide+FE D2 +slide+FE D2|F2A2 F4|+slide+FE D2 EF|1 D8:|2 D6 Bc||
|:d2d2 defe|d3(B A2)Bc|d2dB A2 F2|((3F/G/F/D) (EF) D3((3A/B/c/|
d2)d2-defe|d3 (BA2) Bc|d2 dB A2F2|((3F/G/F/D) (EF) D4||
% abcbook-tune_id 63ae8f1c1642a01b7f421fce
% abcbook-tune_composer_id 
% abcbook-link-0 https://www.youtube.com/watch?v=QcxEPXtufOE
% abcbook-link-title-0 Miller Boy (DDAD tuning)
% abcbook-boost 0
% abcbook-difficulty 0
% abcbook-tags canberra pickers and fiddlers,old time tunes,© free
% abcbook-tablature 
% abcbook-transpose 
% abcbook-tuning DDAD
% abcbook-lastupdated 1675263542746
% abcbook-src-url https://tunebook.net/scrape/tunes.abc
% abcbook-soundfonts 
% abcbook-repeats 1


